src/dotbox.svg

<?xml version="1.0" encoding="UTF-8" standalone="no"?>
<!-- Created with Inkscape (http://www.inkscape.org/) -->

<svg
   xmlns:osb="http://www.openswatchbook.org/uri/2009/osb"
   xmlns:dc="http://purl.org/dc/elements/1.1/"
   xmlns:cc="http://creativecommons.org/ns#"
   xmlns:rdf="http://www.w3.org/1999/02/22-rdf-syntax-ns#"
   xmlns:svg="http://www.w3.org/2000/svg"
   xmlns="http://www.w3.org/2000/svg"
   xmlns:sodipodi="http://sodipodi.sourceforge.net/DTD/sodipodi-0.dtd"
   xmlns:inkscape="http://www.inkscape.org/namespaces/inkscape"
   width="24"
   height="24"
   id="svg2"
   version="1.1"
   inkscape:version="0.48.4 r9939"
   sodipodi:docname="New document 12">
  <defs
     id="defs4">
    <linearGradient
       id="linearGradient5179-1-3"
       osb:paint="solid"
       gradientTransform="matrix(0.38299175,0,0,0.38299175,185.97435,205.35914)">
      <stop
         style="stop-color:#d64933;stop-opacity:1;"
         offset="0"
         id="stop5181-2-7" />
    </linearGradient>
  </defs>
  <sodipodi:namedview
     id="base"
     pagecolor="#ffffff"
     bordercolor="#666666"
     borderopacity="1.0"
     inkscape:pageopacity="0.0"
     inkscape:pageshadow="2"
     inkscape:zoom="7.9195956"
     inkscape:cx="12.883123"
     inkscape:cy="36.809895"
     inkscape:document-units="px"
     inkscape:current-layer="layer5"
     showgrid="true"
     inkscape:window-width="1861"
     inkscape:window-height="1176"
     inkscape:window-x="59"
     inkscape:window-y="24"
     inkscape:window-maximized="1"
     inkscape:snap-bbox="false"
     inkscape:object-nodes="true"
     inkscape:snap-smooth-nodes="true"
     inkscape:snap-nodes="true"
     inkscape:snap-midpoints="false"
     showguides="false"
     inkscape:guide-bbox="true"
     inkscape:snap-grids="false"
     inkscape:bbox-nodes="false"
     inkscape:snap-object-midpoints="true"
     inkscape:snap-bbox-edge-midpoints="false"
     inkscape:bbox-paths="true"
     inkscape:snap-global="false">
    <inkscape:grid
       type="xygrid"
       id="grid2993"
       empspacing="5"
       visible="true"
       enabled="true"
       snapvisiblegridlinesonly="true"
       dotted="false" />
    <sodipodi:guide
       orientation="0,1"
       position="9.6247681,18.250154"
       id="guide4529" />
  </sodipodi:namedview>
  <metadata
     id="metadata7">
    <rdf:RDF>
      <cc:Work
         rdf:about="">
        <dc:format>image/svg+xml</dc:format>
        <dc:type
           rdf:resource="http://purl.org/dc/dcmitype/StillImage" />
        <dc:title></dc:title>
      </cc:Work>
    </rdf:RDF>
  </metadata>
  <g
     inkscape:label="Layer 1"
     inkscape:groupmode="layer"
     id="layer1"
     transform="translate(0,-1028.3622)"
     style="display:inline" />
  <g
     inkscape:groupmode="layer"
     id="layer3"
     inkscape:label="Layer 2" />
  <g
     inkscape:groupmode="layer"
     id="layer2"
     inkscape:label="Layer 3" />
  <g
     inkscape:groupmode="layer"
     id="layer4"
     inkscape:label="Layer 4">
    <path
       style="fill:#e8e8e8;stroke:#2d2d2d;stroke-width:1.49642919999999990;stroke-linecap:butt;stroke-linejoin:round;stroke-miterlimit:4;stroke-opacity:1;stroke-dasharray:none"
       d="m 1.75,1.75 0,20.5 20.5,0 0,-20.5 -20.5,0 z m 4.0625,4.0625 3.09375,0 L 12,8 l 3.09375,-2.1875 3.09375,0 0,3.09375 L 16,12 l 2.1875,3.09375 0,3.09375 -3.09375,0 L 12,16 l -3.09375,2.1875 -3.09375,0 0,-3.09375 L 8,12 5.8125,8.90625 l 0,-3.09375 z"
       id="path4538"
       inkscape:connector-curvature="0" />
  </g>
  <g
     inkscape:groupmode="layer"
     id="layer5"
     inkscape:label="Layer 5">
    <rect
       style="fill:#e8e8e8;fill-opacity:1;stroke:#2d2d2d;stroke-width:0.73110867;stroke-linecap:round;stroke-linejoin:bevel;stroke-miterlimit:4;stroke-opacity:1;stroke-dasharray:none"
       id="rect4536"
       width="2.4505758"
       height="2.4505758"
       x="-1.2252823"
       y="15.745275"
       transform="matrix(0.70710655,-0.70710701,0.70710655,0.70710701,0,0)" />
  </g>
</svg>

<?xml version="1.0" encoding="UTF-8" standalone="no"?>
<!-- Created with Inkscape (http://www.inkscape.org/) -->

<svg
   xmlns:osb="http://www.openswatchbook.org/uri/2009/osb"
   xmlns:dc="http://purl.org/dc/elements/1.1/"
   xmlns:cc="http://creativecommons.org/ns#"
   xmlns:rdf="http://www.w3.org/1999/02/22-rdf-syntax-ns#"
   xmlns:svg="http://www.w3.org/2000/svg"
   xmlns="http://www.w3.org/2000/svg"
   xmlns:sodipodi="http://sodipodi.sourceforge.net/DTD/sodipodi-0.dtd"
   xmlns:inkscape="http://www.inkscape.org/namespaces/inkscape"
   width="24"
   height="24"
   id="svg2"
   version="1.1"
   inkscape:version="0.92.4 5da689c313, 2019-01-14"
   sodipodi:docname="dotbox.svg"
   inkscape:export-filename="/home/yutyo/git/mer-cursor/src/dotbox.png"
   inkscape:export-xdpi="90"
   inkscape:export-ydpi="90">
  <defs
     id="defs4">
    <linearGradient
       id="linearGradient5179-1-3"
       osb:paint="solid"
       gradientTransform="matrix(0.38299175,0,0,0.38299175,185.97435,205.35914)">
      <stop
         style="stop-color:#d64933;stop-opacity:1;"
         offset="0"
         id="stop5181-2-7" />
    </linearGradient>
  </defs>
  <sodipodi:namedview
     id="base"
     pagecolor="#ffffff"
     bordercolor="#666666"
     borderopacity="1.0"
     inkscape:pageopacity="0.0"
     inkscape:pageshadow="2"
     inkscape:zoom="17.540667"
     inkscape:cx="12.883123"
     inkscape:cy="11.72533"
     inkscape:document-units="px"
     inkscape:current-layer="layer5"
     showgrid="true"
     inkscape:window-width="1326"
     inkscape:window-height="718"
     inkscape:window-x="40"
     inkscape:window-y="25"
     inkscape:window-maximized="1"
     inkscape:snap-bbox="false"
     inkscape:object-nodes="true"
     inkscape:snap-smooth-nodes="true"
     inkscape:snap-nodes="true"
     inkscape:snap-midpoints="false"
     showguides="false"
     inkscape:guide-bbox="true"
     inkscape:snap-grids="false"
     inkscape:bbox-nodes="false"
     inkscape:snap-object-midpoints="true"
     inkscape:snap-bbox-edge-midpoints="false"
     inkscape:bbox-paths="true"
     inkscape:snap-global="false">
    <inkscape:grid
       type="xygrid"
       id="grid2993"
       empspacing="5"
       visible="true"
       enabled="true"
       snapvisiblegridlinesonly="true"
       dotted="false" />
    <sodipodi:guide
       orientation="0,1"
       position="9.6247681,18.250154"
       id="guide4529"
       inkscape:locked="false" />
  </sodipodi:namedview>
  <metadata
     id="metadata7">
    <rdf:RDF>
      <cc:Work
         rdf:about="">
        <dc:format>image/svg+xml</dc:format>
        <dc:type
           rdf:resource="http://purl.org/dc/dcmitype/StillImage" />
        <dc:title></dc:title>
      </cc:Work>
    </rdf:RDF>
  </metadata>
  <g
     inkscape:label="Layer 1"
     inkscape:groupmode="layer"
     id="layer1"
     transform="translate(0,-1028.3622)"
     style="display:inline" />
  <g
     inkscape:groupmode="layer"
     id="layer3"
     inkscape:label="Layer 2" />
  <g
     inkscape:groupmode="layer"
     id="layer2"
     inkscape:label="Layer 3" />
  <g
     inkscape:groupmode="layer"
     id="layer4"
     inkscape:label="Layer 4">
    <path
       style="fill:#ff6600;stroke:#2d2d2d;stroke-width:1.4964292;stroke-linecap:butt;stroke-linejoin:round;stroke-miterlimit:4;stroke-dasharray:none;stroke-opacity:1"
       d="m 1.75,1.75 v 20.5 h 20.5 V 1.75 Z M 5.8125,5.8125 H 8.90625 L 12,8 15.09375,5.8125 H 18.1875 V 8.90625 L 16,12 18.1875,15.09375 V 18.1875 H 15.09375 L 12,16 8.90625,18.1875 H 5.8125 V 15.09375 L 8,12 5.8125,8.90625 Z"
       id="path4538"
       inkscape:connector-curvature="0" />
  </g>
  <g
     inkscape:groupmode="layer"
     id="layer5"
     inkscape:label="Layer 5">
    <rect
       style="fill:#404040;fill-opacity:1;stroke:#2d2d2d;stroke-width:0.73110867;stroke-linecap:round;stroke-linejoin:bevel;stroke-miterlimit:4;stroke-dasharray:none;stroke-opacity:1"
       id="rect4536"
       width="2.4505758"
       height="2.4505758"
       x="-1.2252823"
       y="15.745275"
       transform="rotate(-45.000019)" />
  </g>
</svg>
